X: 18192
T: Humours Of Glenanniff, The
R: reel
M: 4/4
K: Dmajor
|:Addc d2AG|F2AF GEE2|Addc d2AG|FAGE EDD2|
Addc dcAG|F2AF GEED|F3A G2FG|A2GE EDD2:|
|:F3A G2FG|EA3 EFGE|EDFA d3B|cAAG EFGE|
F3A G2FG|EA3 EFGE|DFEG FA (3Bcd|1 cAGE EDDE:|2 cAGE EDD2||

